static/assets/images/exchanges/sushi.svg

<svg width="280" height="256" viewBox="0 0 280 256" fill="none" xmlns="http://www.w3.org/2000/svg">
<path d="M57.6679 14.7575L274.773 163.023L221.081 242.41L3.9751 92.9765L57.6679 14.7575Z" fill="url(#paint0_linear_9884_966)"/>
<path d="M221.081 241.242C202.405 268.094 139.374 257.587 79.8454 215.559C20.3164 173.53 -13.5334 119.828 5.14237 91.8091C23.8181 64.9578 86.8488 75.4649 146.378 117.493C205.907 159.521 238.589 214.391 221.081 241.242Z" fill="url(#paint1_linear_9884_966)"/>
<path d="M274.773 163.023C256.098 189.875 193.067 179.368 133.538 137.34C72.8421 96.4789 40.1594 41.6088 57.6679 14.7575C76.3436 -12.0938 139.375 -1.58669 198.904 40.4414C259.6 80.1347 292.282 136.172 274.773 163.023Z" fill="url(#paint2_linear_9884_966)"/>
<path fill-rule="evenodd" clip-rule="evenodd" d="M266.603 158.354C250.262 181.703 193.067 170.028 138.207 131.502C82.1799 92.9766 49.4973 43.9438 65.8386 20.5948C82.1799 -2.75414 139.374 8.92033 194.234 47.4461C249.094 85.9719 281.777 135.005 266.603 158.354ZM215.245 123.33C207.074 135.005 179.06 129.167 151.047 110.488C124.2 91.8091 107.859 67.2927 116.03 55.6183C124.2 43.9438 152.214 49.781 180.228 68.4602C207.074 87.1394 223.415 111.656 215.245 123.33Z" fill="white"/>
<path d="M52.9989 41.6088C52.9989 40.4414 51.8317 39.274 50.6644 40.4414C49.4972 41.6089 48.3299 41.6089 48.3299 42.7763C49.4972 46.2786 50.6644 48.6135 50.6644 50.9484C50.6644 52.1159 51.8316 53.2833 52.9989 52.1159C54.1661 52.1159 55.3334 50.9484 54.1661 49.781C54.1661 47.4461 54.1661 45.1112 52.9989 41.6088Z" fill="white"/>
<path d="M58.8354 60.288C58.8354 59.1205 57.6682 57.9531 56.501 59.1205C55.3337 60.288 55.3337 60.288 55.3337 61.4554C68.1733 90.6416 95.0197 122.163 130.037 145.512C131.204 146.679 132.371 145.512 133.538 145.512C134.706 144.344 133.538 143.177 133.538 142.009C97.3541 118.66 71.675 88.3067 58.8354 60.288Z" fill="white"/>
<path d="M200.071 174.698C198.903 174.698 197.736 174.698 197.736 175.865C197.736 177.033 197.736 178.2 198.903 178.2C202.405 179.368 207.074 180.535 210.576 181.703C211.743 181.703 212.91 181.703 212.91 180.535C212.91 179.368 212.91 178.2 211.743 178.2C208.241 177.033 203.572 175.865 200.071 174.698Z" fill="white"/>
<path d="M221.081 179.368C219.914 179.368 218.747 180.535 218.747 181.703C218.747 182.87 219.914 184.038 221.081 184.038C230.419 185.205 240.924 186.372 249.095 185.205C250.262 185.205 251.429 184.038 251.429 182.87C251.429 181.703 250.262 180.535 249.095 180.535C239.757 181.703 230.419 180.535 221.081 179.368Z" fill="white"/>
<defs>
<linearGradient id="paint0_linear_9884_966" x1="99.3139" y1="-23.7056" x2="151.324" y2="140.175" gradientUnits="userSpaceOnUse">
<stop stop-color="#03B8FF"/>
<stop offset="1" stop-color="#FA52A0"/>
</linearGradient>
<linearGradient id="paint1_linear_9884_966" x1="65.9689" y1="-11.4459" x2="113.325" y2="144.39" gradientUnits="userSpaceOnUse">
<stop stop-color="#03B8FF"/>
<stop offset="1" stop-color="#FA52A0"/>
</linearGradient>
<linearGradient id="paint2_linear_9884_966" x1="102.034" y1="-23.9777" x2="172.424" y2="183.085" gradientUnits="userSpaceOnUse">
<stop stop-color="#03B8FF"/>
<stop offset="1" stop-color="#FA52A0"/>
</linearGradient>
</defs>
</svg>

<svg xmlns="http://www.w3.org/2000/svg" fill="none" viewBox="0 0 280 256"><path fill="url(#paint0_linear_9884_966)" d="m57.668 14.758 217.105 148.265-53.692 79.387L3.975 92.977z"/><path fill="url(#paint1_linear_9884_966)" d="M221.081 241.242c-18.676 26.852-81.707 16.345-141.236-25.683-59.529-42.029-93.378-95.731-74.703-123.75 18.676-26.851 81.707-16.344 141.236 25.684s92.211 96.898 74.703 123.749"/><path fill="url(#paint2_linear_9884_966)" d="M274.773 163.023c-18.675 26.852-81.706 16.345-141.235-25.683-60.696-40.861-93.379-95.731-75.87-122.583 18.676-26.85 81.707-16.344 141.236 25.684 60.696 39.694 93.378 95.731 75.869 122.582"/><path fill="#fff" fill-rule="evenodd" d="M266.603 158.354c-16.341 23.349-73.536 11.674-128.396-26.852C82.18 92.977 49.497 43.944 65.839 20.595c16.34-23.35 73.535-11.675 128.395 26.851s87.543 87.559 72.369 110.908m-51.358-35.024c-8.171 11.675-36.185 5.837-64.198-12.842-26.847-18.679-43.188-43.195-35.017-54.87s36.184-5.837 64.198 12.842c26.846 18.68 43.187 43.196 35.017 54.87" clip-rule="evenodd"/><path fill="#fff" d="M52.999 41.609c0-1.168-1.167-2.335-2.335-1.168s-2.334 1.168-2.334 2.335c1.167 3.503 2.334 5.837 2.334 8.172 0 1.168 1.168 2.335 2.335 1.168 1.167 0 2.334-1.168 1.167-2.335 0-2.335 0-4.67-1.167-8.172m5.836 18.679c0-1.167-1.167-2.335-2.334-1.167s-1.167 1.167-1.167 2.334c12.84 29.187 39.686 60.708 74.703 84.057 1.167 1.167 2.334 0 3.501 0 1.168-1.168 0-2.335 0-3.503-36.184-23.349-61.863-53.702-74.703-81.721m141.236 114.41c-1.168 0-2.335 0-2.335 1.167s0 2.335 1.167 2.335c3.502 1.168 8.171 2.335 11.673 3.503 1.167 0 2.334 0 2.334-1.168s0-2.335-1.167-2.335c-3.502-1.167-8.171-2.335-11.672-3.502m21.01 4.67c-1.167 0-2.334 1.167-2.334 2.335s1.167 2.335 2.334 2.335c9.338 1.167 19.843 2.334 28.014 1.167 1.167 0 2.334-1.167 2.334-2.335s-1.167-2.335-2.334-2.335c-9.338 1.168-18.676 0-28.014-1.167"/><defs><linearGradient id="paint0_linear_9884_966" x1="99.314" x2="151.324" y1="-23.706" y2="140.175" gradientUnits="userSpaceOnUse"><stop stop-color="#03B8FF"/><stop offset="1" stop-color="#FA52A0"/></linearGradient><linearGradient id="paint1_linear_9884_966" x1="65.969" x2="113.325" y1="-11.446" y2="144.39" gradientUnits="userSpaceOnUse"><stop stop-color="#03B8FF"/><stop offset="1" stop-color="#FA52A0"/></linearGradient><linearGradient id="paint2_linear_9884_966" x1="102.034" x2="172.424" y1="-23.978" y2="183.085" gradientUnits="userSpaceOnUse"><stop stop-color="#03B8FF"/><stop offset="1" stop-color="#FA52A0"/></linearGradient></defs></svg>
